X: 19744
T: Jenny Picking Cockles
R: reel
M: 4/4
K: Eminor
d2 dc AG (3GGG|FGAB cA GA|d2 dc AG (3GGG|GE c EE D D2|
d2 dc AG (3GGG|FGAB c3 d|ed (3ddd dcA G|GE c EE D D2:|
|:f3 de fed|^c AAA ^c AAA|f3 d ed ^cd|ea aged cA|
f3 de fed|^c AA B =c3 d|ed (3ddd dcA G|GE c EE D D2:|

